static/assets/template/assets/img/icons/essential/detailed/Tablet.svg

<svg height="148" viewBox="0 0 110 148" width="110" xmlns="http://www.w3.org/2000/svg"><g fill="none" fill-rule="evenodd" transform="translate(2 1)"><path d="m95.6 144.8h-85c-5.7 0-10.4-4.6-10.4-10.4v-123.3c0-5.7 4.6-10.4 10.4-10.4h85c5.7 0 10.4 4.6 10.4 10.4v123.3c-.1 5.7-4.7 10.4-10.4 10.4z" fill-rule="nonzero"/><path d="m105.9 11.1v123.3c0 5.7-4.6 10.4-10.4 10.4h-85c-5.7 0-10.4-4.6-10.4-10.4v-123.3c0-5.7 4.6-10.4 10.4-10.4h85c5.8.1 10.4 4.7 10.4 10.4z" fill-rule="nonzero"/><path d="m.2 12.3h105.7v116h-105.7z" fill-rule="nonzero"/><g stroke-linecap="round" stroke-linejoin="round" stroke-width="3"><path d="m.2 41.1v-30c0-5.7 4.6-10.4 10.4-10.4h85c5.7 0 10.4 4.6 10.4 10.4v123.3c0 5.7-4.6 10.4-10.4 10.4h-85c-5.7 0-10.4-4.6-10.4-10.4v-71.4"/><path d="m.2 46.6v-.4"/><circle cx="53.7" cy="136.3" r="3.5"/><path d="m97.5 12.8h7.7"/><path d="m7.5 12.8h83.9"/><path d="m87.7 127.8h-86.8"/><path d="m105.2 127.8h-11.1"/><path d="m50.2 6.8h9"/><path d="m44.3 6.8h.6"/></g></g></svg>

<?xml version="1.0" encoding="UTF-8"?>
<svg width="110px" height="148px" viewBox="0 0 110 148" version="1.1" xmlns="http://www.w3.org/2000/svg" xmlns:xlink="http://www.w3.org/1999/xlink">
    <!-- Generator: Sketch 51.2 (57519) - http://www.bohemiancoding.com/sketch -->
    <title>Tablet</title>
    <desc>Created with Sketch.</desc>
    <defs></defs>
    <g id="Page-1" stroke="none" stroke-width="1" fill="none" fill-rule="evenodd">
        <g id="Tablet" transform="translate(2.000000, 1.000000)">
            <g id="Group">
                <path d="M95.6,144.8 L10.6,144.8 C4.9,144.8 0.2,140.2 0.2,134.4 L0.2,11.1 C0.2,5.4 4.8,0.7 10.6,0.7 L95.6,0.7 C101.3,0.7 106,5.3 106,11.1 L106,134.4 C105.9,140.1 101.3,144.8 95.6,144.8 Z" id="Shape" class="fill-neutral" fill-rule="nonzero"></path>
                <path d="M105.9,11.1 L105.9,134.4 C105.9,140.1 101.3,144.8 95.5,144.8 L10.5,144.8 C4.8,144.8 0.1,140.2 0.1,134.4 L0.1,11.1 C0.1,5.4 4.7,0.7 10.5,0.7 L95.5,0.7 C101.3,0.8 105.9,5.4 105.9,11.1 Z" id="Shape" class="fill-primary-200" fill-rule="nonzero"></path>
                <rect id="Rectangle-path" class="fill-neutral" fill-rule="nonzero" x="0.2" y="12.3" width="105.7" height="116"></rect>
                <path d="M0.2,41.1 L0.2,11.1 C0.2,5.4 4.8,0.7 10.6,0.7 L95.6,0.7 C101.3,0.7 106,5.3 106,11.1 L106,134.4 C106,140.1 101.4,144.8 95.6,144.8 L10.6,144.8 C4.9,144.8 0.2,140.2 0.2,134.4 L0.2,63" id="Shape" class="stroke-primary" stroke-width="3" stroke-linecap="round" stroke-linejoin="round"></path>
                <path d="M0.2,46.6 L0.2,46.2" id="Shape" class="stroke-primary" stroke-width="3" stroke-linecap="round" stroke-linejoin="round"></path>
                <circle id="Oval" class="stroke-primary" stroke-width="3" stroke-linecap="round" stroke-linejoin="round" cx="53.7" cy="136.3" r="3.5"></circle>
                <path d="M97.5,12.8 L105.2,12.8" id="Shape" class="stroke-primary" stroke-width="3" stroke-linecap="round" stroke-linejoin="round"></path>
                <path d="M7.5,12.8 L91.4,12.8" id="Shape" class="stroke-primary" stroke-width="3" stroke-linecap="round" stroke-linejoin="round"></path>
                <path d="M87.7,127.8 L0.9,127.8" id="Shape" class="stroke-primary" stroke-width="3" stroke-linecap="round" stroke-linejoin="round"></path>
                <path d="M105.2,127.8 L94.1,127.8" id="Shape" class="stroke-primary" stroke-width="3" stroke-linecap="round" stroke-linejoin="round"></path>
                <path d="M50.2,6.8 L59.2,6.8" id="Shape" class="stroke-primary" stroke-width="3" stroke-linecap="round" stroke-linejoin="round"></path>
                <path d="M44.3,6.8 L44.9,6.8" id="Shape" class="stroke-primary" stroke-width="3" stroke-linecap="round" stroke-linejoin="round"></path>
            </g>
        </g>
    </g>
</svg>
